!!!!SEGMENT: pl-sa--l-1636--066_anonim--praeludium.krn
!!!cenid: 17xx:773
!!!COM: Anonim
!!!COM-rismID: pe30004985
!!!CDT:
!!!CNT:
!!!OTL: Praeludium
!!!PDT:
!!!AGN: Secular; Prelude
!!!SMS-siglum: PL-SA
!!!SMS-shelfmark: L 1636
!!!SMS-shelfwork: 066 W
!!!SMS-variant:
!!!SMS-altvar:
!!!NIFC-rismSourceID: 1001076870
!!!NIFC-rismChildID: 1001076870
!!!NIFC-islandoraID:
!!!URL-pdf-islandora:
!!!URL-scan:
!!!ONB-nifc: 19v-20r, skan 0023, s. 1-6
!!!AIN: 1 organ
!!!key:
**kern	**kern
*part1	*part1
*staff2	*staff1
*Iorgan	*Iempty
*I"Organo	*
*I'Org.	*
*clefF4	*clefC1
*k[]	*k[]
*C:	*C:
*M2/2	*M2/2
*met(c|)	*met(c|)
=1	=1
*^	*
!	!	!LO:SIC:o:s:=:v:all\right
2G/	2GG/	16dd\LL
.	.	16ee\
.	.	16dd\
.	.	16cc\JJ
.	.	16b\LL
.	.	16cc\
.	.	16dd\
.	.	16b\JJ
*	*2\right	*
4G/	2AA\	16cc\LL
.	.	16dd\
.	.	16cc\
.	.	16b\JJ
4F#X/	.	16a\LL
.	.	16b\
.	.	16cc\
.	.	16a\JJ
=2	=2	=2
4G/	2GG\	16b\LL
.	.	16cc\
.	.	16b\
.	.	16a\JJ
4E/	.	16g\LL
.	.	16a\
.	.	16b\
.	.	16g\JJ
4E/	2FF/	16a\LL
.	.	16b\
.	.	16a\
.	.	16g\JJ
4D/	.	16f/LL
.	.	16g/
.	.	16a/
.	.	16f/JJ
=3	=3	=3
4D/	2EE/	16g/LL
.	.	16a/
.	.	16g/
.	.	16f/JJ
[4C/	.	16e/LL
.	.	16f/
.	.	16g/
.	.	16e/JJ
4C/]	2DD/	16f/LL
.	.	16g/
.	.	16f/
.	.	16e/JJ
4BB/	.	16d/LL
.	.	16e/
.	.	16f/
.	.	16d/JJ
*v	*v	*
=4	=4
*	*^
4.C/	8e/L	2ryy
.	8f#X/J	.
.	[4g/	.
8BB/	.	.
8C/L	4g\]	2a/
!!LO:LB:g=original
!	!LO:SIC:o:s:=:v:końcówka taktu zamazana	!
8AA/J	.	.
4DD/	4f#\	.
*	*v	*v
=5	=5
!!linebreak:original
*	*clefG2
1G/ 1D/ 1GG/	16g/LL
.	16a/
.	16b/
.	16cc/JJ
.	16dd\LL
.	16cc\
.	16b\
.	16a\JJ
.	16g/LL
.	16a/
.	16b/
.	16cc/JJ
.	16dd\LL
.	16ee\
.	16ff\
.	16dd\JJ
=6	=6
*^	*
2G/ 2E/	2C\	16gg\LL
.	.	16aa\
.	.	16gg\
.	.	16ff\JJ
.	.	16ee\LL
.	.	16ff\
.	.	16gg\
.	.	16ee\JJ
4A/	2D\	16ff\LL
.	.	16gg\
.	.	16ff\
.	.	16ee\JJ
4B/	.	16dd\LL
.	.	16ee\
.	.	16ff\
.	.	16dd\JJ
=7	=7	=7
4c/	2C\	16ee\LL
.	.	16ff\
.	.	16ee\
.	.	16dd\JJ
4A/	.	16cc\LL
.	.	16dd\
.	.	16ee\
.	.	16cc\JJ
4A/	2BB\	16dd\LL
.	.	16ee\
.	.	16ff\
.	.	16cc\JJ
4G/	.	16b\LL
.	.	16cc\
.	.	16dd\
.	.	16b\JJ
!!LO:LB:g=original
=8	=8	=8
4G/	2AA\	16cc\LL
.	.	16dd\
.	.	16cc\
.	.	16b\JJ
4F#X/	.	16a/LL
.	.	16b/
.	.	16cc/
.	.	16a/JJ
16G\LL	2ryy	16b/LL
16A\	.	16cc/
16G\	.	16b/
16F#\JJ	.	16a/JJ
16E\LL	.	16g/LL
16F#\	.	16a/
16G\	.	16b/
16E\JJ	.	16g/JJ
*v	*v	*
=9	=9
16F\LL	16a/LL
16G\	16b/
16F\	16a/
16E\JJ	16g/JJ
16D\LL	16f/LL
16E\	16g/
16F\	16a/
16D\JJ	16f/JJ
16E\LL	16gg\LL
16F\	16aa\
16E\	16gg\
16D\JJ	16ff\JJ
16C/LL	16ee\LL
16D/	16ff\
16E/	16gg\
16C/JJ	16ee\JJ
=10	=10
16d\LL	16ff\LL
16e\	16gg\
16d\	16ff\
16c\JJ	16ee\JJ
16B\LL	16dd\LL
16c\	16ee\
16d\	16ff\
16B\JJ	16dd\JJ
16c\LL	16ee\LL
16d\	16ff\
16c\	16ee\
16B\JJ	16dd\JJ
16A\LL	16cc\LL
16B\	16dd\
16c\	16ee\
16A\JJ	16cc\JJ
=11	=11
16B\LL	16dd\LL
16c\	16ee\
16B\	16dd\
16A\JJ	16cc\JJ
16G\LL	16b\LL
16A\	16cc\
16B\	16dd\
16G\JJ	16b\JJ
!!LO:LB:g=original
16A\LL	16cc\LL
16B\	16dd\
16A\	16cc\
16G\JJ	16b\JJ
16F\LL	16a/LL
16G\	16b/
16A\	16cc/
16F\JJ	16a/JJ
=12	=12
*	*^
16G\LL	4dd/	2b\
16A\	.	.
16G\	.	.
16F\JJ	.	.
16E\LL	4ee/	.
16F\	.	.
16G\	.	.
16E\JJ	.	.
16F\LL	4cc/	2a\
16G\	.	.
16F\	.	.
16E\JJ	.	.
16D\LL	4dd/	.
16E\	.	.
16F\	.	.
16D\JJ	.	.
=13	=13	=13
16E\LL	4b/	2g\
16F\	.	.
16E\	.	.
16D\JJ	.	.
16C\LL	4cc/	.
16D\	.	.
16E\	.	.
16C\JJ	.	.
16D\LL	4a/	2f#X\
16E\	.	.
16D\	.	.
16C\JJ	.	.
16BB/LL	4b/	.
16C/	.	.
16D/	.	.
16BB/JJ	.	.
=14	=14	=14
16C/LL	4g/	2e\
16D/	.	.
16C/	.	.
16BB/JJ	.	.
16AA/LL	4a/	.
16BB/	.	.
16C/	.	.
16AA/JJ	.	.
16BB/LL	4f#X/	2d\
16C/	.	.
16BB/	.	.
16AA/JJ	.	.
16GG/LL	4g/	.
16AA/	.	.
16BB/	.	.
16GG/JJ	.	.
=15	=15	=15
4AA/	4e/	4c#X\
4FF#X/	4f#X/	4d\
!!LO:PB:g=original
4GG/	2e/	4d\
4AA/	.	4c#\
*	*v	*v
=16	=16
1A\ 1F#X\ 1D\	16d/LL
.	16e/
.	16f#X/
.	16g/JJ
.	16a/LL
.	16g/
.	16f#/
.	16e/JJ
.	16d/LL
.	16e/
.	16f#/
.	16g/JJ
.	16a\LL
.	16b\
.	16cc\
.	16a\JJ
=17	=17
*^	*
2G/	2GG/	16dd\LL
.	.	16ee\
.	.	16dd\
.	.	16cc\JJ
.	.	16b\LL
.	.	16cc\
.	.	16dd\
.	.	16b\JJ
4G/	2AA\	16cc\LL
.	.	16dd\
.	.	16cc\
.	.	16b\JJ
4F#X/	.	16a\LL
.	.	16b\
.	.	16cc\
.	.	16a\JJ
=18	=18	=18
4G/	2GG\	16b\LL
.	.	16cc\
.	.	16b\
.	.	16a\JJ
4E/	.	16g/LL
.	.	16a/
.	.	16b/
.	.	16g/JJ
4E/	2FF/	16a/LL
.	.	16b/
.	.	16a/
.	.	16g/JJ
4D/	.	16f/LL
.	.	16g/
.	.	16a/
.	.	16f/JJ
!!LO:LB:g=original
=19	=19	=19
4D/	2EE/	16g/LL
.	.	16a/
.	.	16g/
.	.	16f/JJ
4C/	.	16e/LL
.	.	16f/
.	.	16g/
.	.	16e/JJ
4C/	2DD/	16f/LL
.	.	16g/
.	.	16f/
.	.	16e/JJ
4BB/	.	16d/LL
.	.	16e/
.	.	16f/
.	.	16d/JJ
=20	=20	=20
[2C/	[2CC/	16e/LL
.	.	16f/
.	.	16e/
.	.	16d/JJ
.	.	16c/LL
.	.	16d/
.	.	16e/
.	.	16c/JJ
2C/]	2CC/]	16cc\LL
.	.	16dd\
.	.	16ee\
.	.	16dd\JJ
.	.	16cc/LL
.	.	16b/
.	.	16a/
.	.	16g/JJ
*v	*v	*
=21	=21
*	*^
1D/ 1DD/	4a/	8f#X\L
.	.	8d\J
.	8.b/L	4g\
.	16cc/Jk	.
.	2a/	4g\
.	.	4f#\
*	*v	*v
=22	=22
0G/; 0GG/;	0g/;
==	==
*-	*-
!!!system-decoration: {(s1,s2)}
!!!EED: Leszek Kubiak
!!!EEV: 2020-12-09
!!!ENC: Tomasz Grochalski
!!!END: 2020-06-12
!!!YEC: Copyright 2022 Narodowy Instytut Fryderyka Chopina (https://polishscores.org)
!!!YEM: License CC-BY-4.0 (https://creativecommons.org/licenses/by/4.0)
